X:1
T:[ID 2-35]
T:[ID 2-35]
T:Bezeichnung standardisiert: Menuett Menuet 1. ex C. #
T:Urheber unbekannt Datum in der hier transkribierten schriftlichen Quelle: 1767
C:Urheber unbekannt
C:Datum in der hier transkribierten schriftlichen Quelle: 1767
L:1/8
M:3/4
K:C
V:1 treble 
V:1
 C2 c2 c2 | c2 G2 E2 | c2 G2{F} E2 | C4 G,2 | B,4 E2 | (ED)(DC) C2 |"^1)" x6 | c2 G2 E2 | F2 C4 | %9
 E6 :: E2 c2 (3cde | d2 B2 G2 | B2 cBAG | ^F2 DE F2 | ^F4 B2 | (BA)(AG)(GF) | ^F4 A2 | %17
 (AG)(GF)(FE) | G2 D3 C | B,4 G2 | c4 eg | F4 Ac | E4 ce | d2 B2 G2 | B,4 E2 | EDDC C2 | B,4 B2 | %27
 DCCB, B,2 | G2 c2 a2 | g2 G4 | c2 GFED | E6 :| %32

